assets/Orthodox cross/Flat/orthodox_cross_flat.svg

<svg width="32" height="32" viewBox="0 0 32 32" fill="none" xmlns="http://www.w3.org/2000/svg">
<path d="M30 26C30 28.2091 28.2091 30 26 30H6C3.79086 30 2 28.2091 2 26V6C2 3.79086 3.79086 2 6 2H26C28.2091 2 30 3.79086 30 6V26Z" fill="#8D65C5"/>
<path d="M16 6C15.4477 6 15 6.44772 15 7V8H13C12.4477 8 12 8.44772 12 9C12 9.55228 12.4477 10 13 10H15V12H10C9.44772 12 9 12.4477 9 13C9 13.5523 9.44772 14 10 14H15V19.1547L13.866 18.5C13.3877 18.2239 12.7761 18.3877 12.5 18.866C12.2239 19.3443 12.3877 19.9559 12.866 20.2321L15 21.4641V25C15 25.5523 15.4477 26 16 26C16.5523 26 17 25.5523 17 25V22.6188L18.9282 23.732C19.4065 24.0082 20.0181 23.8443 20.2942 23.366C20.5704 22.8877 20.4065 22.2761 19.9282 22L17 20.3094V14H22C22.5523 14 23 13.5523 23 13C23 12.4477 22.5523 12 22 12H17V10H19C19.5523 10 20 9.55228 20 9C20 8.44772 19.5523 8 19 8H17V7C17 6.44772 16.5523 6 16 6Z" fill="white"/>
</svg>

<svg xmlns="http://www.w3.org/2000/svg" width="32" height="32" fill="none"><path fill="#8D65C5" d="M30 26a4 4 0 0 1-4 4H6a4 4 0 0 1-4-4V6a4 4 0 0 1 4-4h20a4 4 0 0 1 4 4v20Z"/><path fill="#fff" d="M16 6a1 1 0 0 0-1 1v1h-2a1 1 0 1 0 0 2h2v2h-5a1 1 0 1 0 0 2h5v5.155l-1.134-.655a1 1 0 1 0-1 1.732L15 21.464V25a1 1 0 1 0 2 0v-2.381l1.928 1.113a1 1 0 1 0 1-1.732L17 20.31V14h5a1 1 0 1 0 0-2h-5v-2h2a1 1 0 1 0 0-2h-2V7a1 1 0 0 0-1-1Z"/></svg>
